webapp/src/assets/icons/cloudproviders/aws/containers/task.svg

<?xml version="1.0" encoding="UTF-8"?>
<svg width="48px" height="48px" viewBox="0 0 48 48" version="1.1" xmlns="http://www.w3.org/2000/svg" xmlns:xlink="http://www.w3.org/1999/xlink">
    <title>Icon-Resource/Containers/Res_Amazon-Elastic-Container-Service_Task_48</title>
    <g id="Icon-Resource/Containers/Res_Amazon-Elastic-Container-Service_Task_48" stroke="none" stroke-width="1" fill="none" fill-rule="evenodd">
        <path d="M20.25,36.375 L36,36.375 L36,34.375 L20.25,34.375 L20.25,36.375 Z M20.25,24.125 L36,24.125 L36,22.125 L20.25,22.125 L20.25,24.125 Z M20.25,11.875 L36,11.875 L36,9.875 L20.25,9.875 L20.25,11.875 Z M13.375,37 L16.625,37 L16.625,33.75 L13.375,33.75 L13.375,37 Z M12.375,39 L17.625,39 C18.178,39 18.625,38.553 18.625,38 L18.625,32.75 C18.625,32.198 18.178,31.75 17.625,31.75 L12.375,31.75 C11.822,31.75 11.375,32.198 11.375,32.75 L11.375,38 C11.375,38.553 11.822,39 12.375,39 L12.375,39 Z M13.375,24.75 L16.625,24.75 L16.625,21.5 L13.375,21.5 L13.375,24.75 Z M12.375,26.75 L17.625,26.75 C18.178,26.75 18.625,26.303 18.625,25.75 L18.625,20.5 C18.625,19.948 18.178,19.5 17.625,19.5 L12.375,19.5 C11.822,19.5 11.375,19.948 11.375,20.5 L11.375,25.75 C11.375,26.303 11.822,26.75 12.375,26.75 L12.375,26.75 Z M13.375,12.5 L16.625,12.5 L16.625,9.25 L13.375,9.25 L13.375,12.5 Z M12.375,14.5 L17.625,14.5 C18.178,14.5 18.625,14.053 18.625,13.5 L18.625,8.25 C18.625,7.698 18.178,7.25 17.625,7.25 L12.375,7.25 C11.822,7.25 11.375,7.698 11.375,8.25 L11.375,13.5 C11.375,14.053 11.822,14.5 12.375,14.5 L12.375,14.5 Z M9,44 L38.5,44 L38.5,4 L9,4 L9,44 Z M39.5,2 L8,2 C7.447,2 7,2.448 7,3 L7,45 C7,45.553 7.447,46 8,46 L39.5,46 C40.053,46 40.5,45.553 40.5,45 L40.5,3 C40.5,2.448 40.053,2 39.5,2 L39.5,2 Z" id="Amazon-Elastic-Container-Service_Task_Resource-Icon_light-bg" fill="#ED7100"></path>
    </g>
</svg>

<svg width="48" height="48" xmlns="http://www.w3.org/2000/svg"><path d="M20.25 36.375H36v-2H20.25v2Zm0-12.25H36v-2H20.25v2Zm0-12.25H36v-2H20.25v2ZM13.375 37h3.25v-3.25h-3.25V37Zm-1 2h5.25a1 1 0 0 0 1-1v-5.25a1 1 0 0 0-1-1h-5.25a1 1 0 0 0-1 1V38a1 1 0 0 0 1 1Zm1-14.25h3.25V21.5h-3.25v3.25Zm-1 2h5.25a1 1 0 0 0 1-1V20.5a1 1 0 0 0-1-1h-5.25a1 1 0 0 0-1 1v5.25a1 1 0 0 0 1 1Zm1-14.25h3.25V9.25h-3.25v3.25Zm-1 2h5.25a1 1 0 0 0 1-1V8.25a1 1 0 0 0-1-1h-5.25a1 1 0 0 0-1 1v5.25a1 1 0 0 0 1 1ZM9 44h29.5V4H9v40ZM39.5 2H8a1 1 0 0 0-1 1v42a1 1 0 0 0 1 1h31.5a1 1 0 0 0 1-1V3a1 1 0 0 0-1-1Z" fill="#ED7100" fill-rule="evenodd"/></svg>
